X: 572
%
U:~=!turn!
T: Sir Alexr. Don
C:Major Logan
O:Scotland
B:Keith Norman MacDonald : "The Skye collection of the best reels & strathspeys extant" : 1887
Z:Ralph Palmer
R:Strathspey
M:C
L:1/8
K:F
!p!c/B/ | AF~F>A Bdd>B | Ac~c>A BGGc/B/ | !f!A~FF>A BddB | c>f e/f/g/e/ fFF !p!c/B/ | AF~F>A Bdd>B |
AccA BGGc/B/ | !f!AF~F>A BddB | c>f e/f/g/e/ fFF || c | f<ag<a Tf2 cB | AF (d/c/).B/.A/ BGGc |
f<ag<a f<ac>A | BG Tc>B AFFc | f<ag<a Tf2 cB | AF (d/c/).B/.A/ BGGc | f<ag<a f<ac>A | B<G Tc>B AFF |]


